images/klondike_regions.svg

<svg xmlns="http://www.w3.org/2000/svg" width="504" height="342" viewBox="0 0 504 342">
    <g opacity=".498">
        <path fill="red" d="M19.571 17.149h49.05a4 4 0 0 1 4 4v72.212a4 4 0 0 1-4 4h-49.05a4 4 0 0 1-4-4V21.149a4 4 0 0 1 4-4"/>
        <path fill="none" stroke="#000" stroke-width="4" d="M19.571 17.149h49.05a4 4 0 0 1 4 4v72.212a4 4 0 0 1-4 4h-49.05a4 4 0 0 1-4-4V21.149a4 4 0 0 1 4-4z"/>
        <path fill="#ff0" d="M91.379 17.149h49.05a4 4 0 0 1 4 4v72.212a4 4 0 0 1-4 4h-49.05a4 4 0 0 1-4-4V21.149a4 4 0 0 1 4-4"/>
        <path fill="none" stroke="#000" stroke-width="4" d="M91.379 17.149h49.05a4 4 0 0 1 4 4v72.212a4 4 0 0 1-4 4h-49.05a4 4 0 0 1-4-4V21.149a4 4 0 0 1 4-4z"/>
        <path fill="#00ff46" d="M229.379 17.149h49.05a4 4 0 0 1 4 4v72.212a4 4 0 0 1-4 4h-49.05a4 4 0 0 1-4-4V21.149a4 4 0 0 1 4-4"/>
        <path fill="none" stroke="#000" stroke-width="4" d="M229.379 17.149h49.05a4 4 0 0 1 4 4v72.212a4 4 0 0 1-4 4h-49.05a4 4 0 0 1-4-4V21.149a4 4 0 0 1 4-4z"/>
        <path fill="#00ff46" d="M298.379 17.149h49.05a4 4 0 0 1 4 4v72.212a4 4 0 0 1-4 4h-49.05a4 4 0 0 1-4-4V21.149a4 4 0 0 1 4-4"/>
        <path fill="none" stroke="#000" stroke-width="4" d="M298.379 17.149h49.05a4 4 0 0 1 4 4v72.212a4 4 0 0 1-4 4h-49.05a4 4 0 0 1-4-4V21.149a4 4 0 0 1 4-4z"/>
        <path fill="#00ff46" d="M367.379 17.149h49.05a4 4 0 0 1 4 4v72.212a4 4 0 0 1-4 4h-49.05a4 4 0 0 1-4-4V21.149a4 4 0 0 1 4-4"/>
        <path fill="none" stroke="#000" stroke-width="4" d="M367.379 17.149h49.05a4 4 0 0 1 4 4v72.212a4 4 0 0 1-4 4h-49.05a4 4 0 0 1-4-4V21.149a4 4 0 0 1 4-4z"/>
        <path fill="#00ff46" d="M436.379 17.149h49.05a4 4 0 0 1 4 4v72.212a4 4 0 0 1-4 4h-49.05a4 4 0 0 1-4-4V21.149a4 4 0 0 1 4-4"/>
        <path fill="none" stroke="#000" stroke-width="4" d="M436.379 17.149h49.05a4 4 0 0 1 4 4v72.212a4 4 0 0 1-4 4h-49.05a4 4 0 0 1-4-4V21.149a4 4 0 0 1 4-4z"/>
        <path fill="#000dff" d="M22.379 109.851h49.05c2.209 0 4 .578 4 1.292v69.416c0 .713-1.791 1.292-4 1.292h-49.05c-2.21 0-4-.579-4-1.292v-69.416c0-.714 1.79-1.292 4-1.292"/>
        <path fill="none" stroke="#000" stroke-width="4" d="M22.379 109.851h49.05c2.209 0 4 .578 4 1.292v69.416c0 .713-1.791 1.292-4 1.292h-49.05c-2.21 0-4-.579-4-1.292v-69.416c0-.714 1.79-1.292 4-1.292z"/>
        <path fill="#000dff" d="M91.379 109.851h49.05c2.209 0 4 .769 4 1.719v92.322c0 .949-1.791 1.719-4 1.719h-49.05c-2.21 0-4-.77-4-1.719V111.57c0-.95 1.79-1.719 4-1.719"/>
        <path fill="none" stroke="#000" stroke-width="4" d="M91.379 109.851h49.05c2.209 0 4 .769 4 1.719v92.322c0 .949-1.791 1.719-4 1.719h-49.05c-2.21 0-4-.77-4-1.719V111.57c0-.95 1.79-1.719 4-1.719z"/>
        <path fill="#000dff" d="M160.379 109.851h49.05c2.209 0 4 .966 4 2.158v115.924c0 1.192-1.791 2.158-4 2.158h-49.05c-2.21 0-4-.966-4-2.158V112.009c0-1.192 1.79-2.158 4-2.158"/>
        <path fill="none" stroke="#000" stroke-width="4" d="M160.379 109.851h49.05c2.209 0 4 .966 4 2.158v115.924c0 1.192-1.791 2.158-4 2.158h-49.05c-2.21 0-4-.966-4-2.158V112.009c0-1.192 1.79-2.158 4-2.158z"/>
        <path fill="#000dff" d="M229.379 109.851h49.05c2.209 0 4 1.294 4 2.889v138.221c0 1.596-1.791 2.89-4 2.89h-49.05c-2.21 0-4-1.294-4-2.89V112.74c0-1.595 1.79-2.889 4-2.889"/>
        <path fill="none" stroke="#000" stroke-width="4" d="M229.379 109.851h49.05c2.209 0 4 1.294 4 2.889v138.221c0 1.596-1.791 2.89-4 2.89h-49.05c-2.21 0-4-1.294-4-2.89V112.74c0-1.595 1.79-2.889 4-2.889z"/>
        <path fill="#000dff" d="M298.379 109.851h49.05c2.209 0 4 1.507 4 3.366v161.028c0 1.859-1.791 3.366-4 3.366h-49.05c-2.21 0-4-1.507-4-3.366V113.217c0-1.859 1.79-3.366 4-3.366"/>
        <path fill="none" stroke="#000" stroke-width="4" d="M298.379 109.851h49.05c2.209 0 4 1.507 4 3.366v161.028c0 1.859-1.791 3.366-4 3.366h-49.05c-2.21 0-4-1.507-4-3.366V113.217c0-1.859 1.79-3.366 4-3.366z"/>
        <path fill="#000dff" d="M367.379 109.851h49.05c2.209 0 4 1.727 4 3.857v184.525c0 2.131-1.791 3.858-4 3.858h-49.05c-2.21 0-4-1.727-4-3.858V113.708c0-2.13 1.79-3.857 4-3.857"/>
        <path fill="none" stroke="#000" stroke-width="4" d="M367.379 109.851h49.05c2.209 0 4 1.727 4 3.857v184.525c0 2.131-1.791 3.858-4 3.858h-49.05c-2.21 0-4-1.727-4-3.858V113.708c0-2.13 1.79-3.857 4-3.857z"/>
        <path fill="#000dff" d="M436.379 109.851h49.05c2.209 0 4 1.94 4 4.334v207.332c0 2.393-1.791 4.334-4 4.334h-49.05c-2.21 0-4-1.941-4-4.334V114.185c0-2.394 1.79-4.334 4-4.334"/>
        <path fill="none" stroke="#000" stroke-width="4" d="M436.379 109.851h49.05c2.209 0 4 1.94 4 4.334v207.332c0 2.393-1.791 4.334-4 4.334h-49.05c-2.21 0-4-1.941-4-4.334V114.185c0-2.394 1.79-4.334 4-4.334z"/>
    </g>
</svg>

<?xml version="1.0" encoding="UTF-8"?>
<!DOCTYPE svg PUBLIC "-//W3C//DTD SVG 1.1//EN" "http://www.w3.org/Graphics/SVG/1.1/DTD/svg11.dtd">
<svg version="1.1" xmlns="http://www.w3.org/2000/svg" xmlns:xlink="http://www.w3.org/1999/xlink" x="0" y="0" width="504" height="342" viewBox="0, 0, 504, 342">
  <g id="Layer_1_Copy" opacity="0.498">
    <g>
      <path d="M19.571,17.149 L68.621,17.149 C70.831,17.149 72.621,18.94 72.621,21.149 L72.621,93.361 C72.621,95.57 70.831,97.361 68.621,97.361 L19.571,97.361 C17.362,97.361 15.571,95.57 15.571,93.361 L15.571,21.149 C15.571,18.94 17.362,17.149 19.571,17.149 z" fill="#FF0000"/>
      <path d="M19.571,17.149 L68.621,17.149 C70.831,17.149 72.621,18.94 72.621,21.149 L72.621,93.361 C72.621,95.57 70.831,97.361 68.621,97.361 L19.571,97.361 C17.362,97.361 15.571,95.57 15.571,93.361 L15.571,21.149 C15.571,18.94 17.362,17.149 19.571,17.149 z" fill-opacity="0" stroke="#000000" stroke-width="4"/>
    </g>
    <g>
      <path d="M91.379,17.149 L140.429,17.149 C142.638,17.149 144.429,18.94 144.429,21.149 L144.429,93.361 C144.429,95.57 142.638,97.361 140.429,97.361 L91.379,97.361 C89.169,97.361 87.379,95.57 87.379,93.361 L87.379,21.149 C87.379,18.94 89.169,17.149 91.379,17.149 z" fill="#FFFF00"/>
      <path d="M91.379,17.149 L140.429,17.149 C142.638,17.149 144.429,18.94 144.429,21.149 L144.429,93.361 C144.429,95.57 142.638,97.361 140.429,97.361 L91.379,97.361 C89.169,97.361 87.379,95.57 87.379,93.361 L87.379,21.149 C87.379,18.94 89.169,17.149 91.379,17.149 z" fill-opacity="0" stroke="#000000" stroke-width="4"/>
    </g>
    <g>
      <path d="M229.379,17.149 L278.429,17.149 C280.638,17.149 282.429,18.94 282.429,21.149 L282.429,93.361 C282.429,95.57 280.638,97.361 278.429,97.361 L229.379,97.361 C227.169,97.361 225.379,95.57 225.379,93.361 L225.379,21.149 C225.379,18.94 227.169,17.149 229.379,17.149 z" fill="#00FF46"/>
      <path d="M229.379,17.149 L278.429,17.149 C280.638,17.149 282.429,18.94 282.429,21.149 L282.429,93.361 C282.429,95.57 280.638,97.361 278.429,97.361 L229.379,97.361 C227.169,97.361 225.379,95.57 225.379,93.361 L225.379,21.149 C225.379,18.94 227.169,17.149 229.379,17.149 z" fill-opacity="0" stroke="#000000" stroke-width="4"/>
    </g>
    <g>
      <path d="M298.379,17.149 L347.429,17.149 C349.638,17.149 351.429,18.94 351.429,21.149 L351.429,93.361 C351.429,95.57 349.638,97.361 347.429,97.361 L298.379,97.361 C296.169,97.361 294.379,95.57 294.379,93.361 L294.379,21.149 C294.379,18.94 296.169,17.149 298.379,17.149 z" fill="#00FF46"/>
      <path d="M298.379,17.149 L347.429,17.149 C349.638,17.149 351.429,18.94 351.429,21.149 L351.429,93.361 C351.429,95.57 349.638,97.361 347.429,97.361 L298.379,97.361 C296.169,97.361 294.379,95.57 294.379,93.361 L294.379,21.149 C294.379,18.94 296.169,17.149 298.379,17.149 z" fill-opacity="0" stroke="#000000" stroke-width="4"/>
    </g>
    <g>
      <path d="M367.379,17.149 L416.429,17.149 C418.638,17.149 420.429,18.94 420.429,21.149 L420.429,93.361 C420.429,95.57 418.638,97.361 416.429,97.361 L367.379,97.361 C365.169,97.361 363.379,95.57 363.379,93.361 L363.379,21.149 C363.379,18.94 365.169,17.149 367.379,17.149 z" fill="#00FF46"/>
      <path d="M367.379,17.149 L416.429,17.149 C418.638,17.149 420.429,18.94 420.429,21.149 L420.429,93.361 C420.429,95.57 418.638,97.361 416.429,97.361 L367.379,97.361 C365.169,97.361 363.379,95.57 363.379,93.361 L363.379,21.149 C363.379,18.94 365.169,17.149 367.379,17.149 z" fill-opacity="0" stroke="#000000" stroke-width="4"/>
    </g>
    <g>
      <path d="M436.379,17.149 L485.429,17.149 C487.638,17.149 489.429,18.94 489.429,21.149 L489.429,93.361 C489.429,95.57 487.638,97.361 485.429,97.361 L436.379,97.361 C434.169,97.361 432.379,95.57 432.379,93.361 L432.379,21.149 C432.379,18.94 434.169,17.149 436.379,17.149 z" fill="#00FF46"/>
      <path d="M436.379,17.149 L485.429,17.149 C487.638,17.149 489.429,18.94 489.429,21.149 L489.429,93.361 C489.429,95.57 487.638,97.361 485.429,97.361 L436.379,97.361 C434.169,97.361 432.379,95.57 432.379,93.361 L432.379,21.149 C432.379,18.94 434.169,17.149 436.379,17.149 z" fill-opacity="0" stroke="#000000" stroke-width="4"/>
    </g>
    <g>
      <path d="M22.379,109.851 L71.429,109.851 C73.638,109.851 75.429,110.429 75.429,111.143 L75.429,180.559 C75.429,181.272 73.638,181.851 71.429,181.851 L22.379,181.851 C20.169,181.851 18.379,181.272 18.379,180.559 L18.379,111.143 C18.379,110.429 20.169,109.851 22.379,109.851 z" fill="#000DFF"/>
      <path d="M22.379,109.851 L71.429,109.851 C73.638,109.851 75.429,110.429 75.429,111.143 L75.429,180.559 C75.429,181.272 73.638,181.851 71.429,181.851 L22.379,181.851 C20.169,181.851 18.379,181.272 18.379,180.559 L18.379,111.143 C18.379,110.429 20.169,109.851 22.379,109.851 z" fill-opacity="0" stroke="#000000" stroke-width="4"/>
    </g>
    <g>
      <path d="M91.379,109.851 L140.429,109.851 C142.638,109.851 144.429,110.62 144.429,111.57 L144.429,203.892 C144.429,204.841 142.638,205.611 140.429,205.611 L91.379,205.611 C89.169,205.611 87.379,204.841 87.379,203.892 L87.379,111.57 C87.379,110.62 89.169,109.851 91.379,109.851 z" fill="#000DFF"/>
      <path d="M91.379,109.851 L140.429,109.851 C142.638,109.851 144.429,110.62 144.429,111.57 L144.429,203.892 C144.429,204.841 142.638,205.611 140.429,205.611 L91.379,205.611 C89.169,205.611 87.379,204.841 87.379,203.892 L87.379,111.57 C87.379,110.62 89.169,109.851 91.379,109.851 z" fill-opacity="0" stroke="#000000" stroke-width="4"/>
    </g>
    <g>
      <path d="M160.379,109.851 L209.429,109.851 C211.638,109.851 213.429,110.817 213.429,112.009 L213.429,227.933 C213.429,229.125 211.638,230.091 209.429,230.091 L160.379,230.091 C158.169,230.091 156.379,229.125 156.379,227.933 L156.379,112.009 C156.379,110.817 158.169,109.851 160.379,109.851 z" fill="#000DFF"/>
      <path d="M160.379,109.851 L209.429,109.851 C211.638,109.851 213.429,110.817 213.429,112.009 L213.429,227.933 C213.429,229.125 211.638,230.091 209.429,230.091 L160.379,230.091 C158.169,230.091 156.379,229.125 156.379,227.933 L156.379,112.009 C156.379,110.817 158.169,109.851 160.379,109.851 z" fill-opacity="0" stroke="#000000" stroke-width="4"/>
    </g>
    <g>
      <path d="M229.379,109.851 L278.429,109.851 C280.638,109.851 282.429,111.145 282.429,112.74 L282.429,250.961 C282.429,252.557 280.638,253.851 278.429,253.851 L229.379,253.851 C227.169,253.851 225.379,252.557 225.379,250.961 L225.379,112.74 C225.379,111.145 227.169,109.851 229.379,109.851 z" fill="#000DFF"/>
      <path d="M229.379,109.851 L278.429,109.851 C280.638,109.851 282.429,111.145 282.429,112.74 L282.429,250.961 C282.429,252.557 280.638,253.851 278.429,253.851 L229.379,253.851 C227.169,253.851 225.379,252.557 225.379,250.961 L225.379,112.74 C225.379,111.145 227.169,109.851 229.379,109.851 z" fill-opacity="0" stroke="#000000" stroke-width="4"/>
    </g>
    <g>
      <path d="M298.379,109.851 L347.429,109.851 C349.638,109.851 351.429,111.358 351.429,113.217 L351.429,274.245 C351.429,276.104 349.638,277.611 347.429,277.611 L298.379,277.611 C296.169,277.611 294.379,276.104 294.379,274.245 L294.379,113.217 C294.379,111.358 296.169,109.851 298.379,109.851 z" fill="#000DFF"/>
      <path d="M298.379,109.851 L347.429,109.851 C349.638,109.851 351.429,111.358 351.429,113.217 L351.429,274.245 C351.429,276.104 349.638,277.611 347.429,277.611 L298.379,277.611 C296.169,277.611 294.379,276.104 294.379,274.245 L294.379,113.217 C294.379,111.358 296.169,109.851 298.379,109.851 z" fill-opacity="0" stroke="#000000" stroke-width="4"/>
    </g>
    <g>
      <path d="M367.379,109.851 L416.429,109.851 C418.638,109.851 420.429,111.578 420.429,113.708 L420.429,298.233 C420.429,300.364 418.638,302.091 416.429,302.091 L367.379,302.091 C365.169,302.091 363.379,300.364 363.379,298.233 L363.379,113.708 C363.379,111.578 365.169,109.851 367.379,109.851 z" fill="#000DFF"/>
      <path d="M367.379,109.851 L416.429,109.851 C418.638,109.851 420.429,111.578 420.429,113.708 L420.429,298.233 C420.429,300.364 418.638,302.091 416.429,302.091 L367.379,302.091 C365.169,302.091 363.379,300.364 363.379,298.233 L363.379,113.708 C363.379,111.578 365.169,109.851 367.379,109.851 z" fill-opacity="0" stroke="#000000" stroke-width="4"/>
    </g>
    <g>
      <path d="M436.379,109.851 L485.429,109.851 C487.638,109.851 489.429,111.791 489.429,114.185 L489.429,321.517 C489.429,323.91 487.638,325.851 485.429,325.851 L436.379,325.851 C434.169,325.851 432.379,323.91 432.379,321.517 L432.379,114.185 C432.379,111.791 434.169,109.851 436.379,109.851 z" fill="#000DFF"/>
      <path d="M436.379,109.851 L485.429,109.851 C487.638,109.851 489.429,111.791 489.429,114.185 L489.429,321.517 C489.429,323.91 487.638,325.851 485.429,325.851 L436.379,325.851 C434.169,325.851 432.379,323.91 432.379,321.517 L432.379,114.185 C432.379,111.791 434.169,109.851 436.379,109.851 z" fill-opacity="0" stroke="#000000" stroke-width="4"/>
    </g>
  </g>
</svg>
